X:400
T:Burnt Old Man, The
R:jig
Z:Transcribed by Dave Marshall
M:6/8
K:D
|:DFB AFD|~F3 FGF|DFB AFD|~E3 EFE|
DFB AFE|DFA d2e|fed BdB|AFD E3:|
|:~d3 def|ABA AFA|~e3 ede|fed B2A|
~d3 def|ABA d2e|fed BdB|AFD E3:|
